img/icons/Ps.svg

<svg width="56" height="56" viewBox="0 0 56 56" fill="none" xmlns="http://www.w3.org/2000/svg">
<circle cx="28" cy="28" r="22" fill="#C4C4C4" fill-opacity="0.4"/>
<path d="M41 41H16V16H41V41Z" fill="#00C3FF"/>
<path d="M41 41H28.5V16H41V41Z" fill="#00C3FF"/>
<path d="M39.5352 39.5352H17.4648V17.4648H39.5352V39.5352Z" fill="#063E8B"/>
<path d="M39.5352 39.5352H28.5V17.4648H39.5352V39.5352Z" fill="#063E8B"/>
<path d="M28.5001 37.9911C27.9131 37.9911 27.3613 37.7625 26.9463 37.3475L19.6526 30.0538C19.2376 29.6388 19.009 29.087 19.009 28.5C19.009 27.9131 19.2376 27.3613 19.6526 26.9463L26.9463 19.6526C27.3613 19.2376 27.9131 19.009 28.5001 19.009C29.087 19.009 29.6388 19.2376 30.0538 19.6526L37.3475 26.9463C37.7625 27.3613 37.9911 27.9131 37.9911 28.5C37.9911 29.087 37.7625 29.6388 37.3475 30.0538L30.0538 37.3475C29.6388 37.7625 29.087 37.9911 28.5001 37.9911ZM28.5001 20.4739C28.3044 20.4739 28.1205 20.5501 27.9821 20.6884L20.6884 27.9821C20.5501 28.1205 20.4739 28.3044 20.4739 28.5C20.4739 28.6957 20.5501 28.8796 20.6884 29.018L27.9821 36.3117C28.1205 36.45 28.3044 36.5262 28.5001 36.5262C28.6957 36.5262 28.8796 36.45 29.018 36.3117L36.3117 29.018C36.45 28.8796 36.5262 28.6957 36.5262 28.5C36.5262 28.3044 36.45 28.1205 36.3117 27.9821L29.018 20.6884C28.8796 20.5501 28.6957 20.4739 28.5001 20.4739Z" fill="#CCEFFF"/>
<path d="M37.3474 26.9463L30.0537 19.6526C29.6387 19.2376 29.0869 19.009 28.5 19.009V20.4739C28.6957 20.4739 28.8795 20.5501 29.0179 20.6884L36.3116 27.9821C36.45 28.1205 36.5262 28.3044 36.5262 28.5C36.5262 28.6957 36.45 28.8796 36.3116 29.018L29.0179 36.3117C28.8796 36.45 28.6957 36.5262 28.5 36.5262V37.9911C29.0869 37.9911 29.6387 37.7625 30.0537 37.3475L37.3474 30.0538C37.7625 29.6388 37.991 29.087 37.991 28.5C37.991 27.9131 37.7625 27.3613 37.3474 26.9463Z" fill="#CCEFFF"/>
<path d="M31.0889 31.2148C30.1439 31.2148 29.4717 30.7852 29.2373 30.582L29.6279 29.9258C29.8779 30.1029 30.4532 30.4648 31.0654 30.4648C31.4623 30.4648 31.7373 30.2985 31.7373 30.0117C31.7373 29.6597 31.1565 29.5457 30.8389 29.457C30.5732 29.3841 29.3779 29.2162 29.3779 28.3164C29.3779 27.4502 30.1317 26.9648 30.9873 26.9648C31.8854 26.9648 32.3649 27.3295 32.5889 27.5273L32.167 28.1602C31.9586 28.0039 31.4948 27.707 30.9795 27.707C30.5997 27.707 30.3545 27.8693 30.3545 28.168C30.3545 28.5407 31.0081 28.6472 31.1592 28.6836C31.4404 28.7566 32.7451 28.9557 32.7451 29.918C32.7451 31.0553 31.5993 31.2148 31.0889 31.2148Z" fill="#00C3FF"/>
<path d="M24.7764 31.1367V25.5898H27.1279C28.2042 25.5898 28.8936 26.5794 28.8936 27.4336C28.8936 28.4403 28.1283 29.2773 27.167 29.2773H25.8545V31.1367H24.7764ZM25.8545 28.332H27.1045C27.4827 28.332 27.7998 27.9792 27.7998 27.4336C27.7998 26.9648 27.5152 26.5352 27.0576 26.5352H25.8545V28.332Z" fill="#00C3FF"/>
<path d="M28.5 26.2983V28.6039C28.7464 28.284 28.8937 27.8751 28.8937 27.4336C28.8937 27.0482 28.7529 26.6355 28.5 26.2983Z" fill="#00C3FF"/>
<path d="M6.23991 45.621C9.23414 49.3185 13.1212 52.1921 17.5342 53.9705C21.9472 55.7489 26.7406 56.3734 31.462 55.7852C36.1833 55.1969 40.6769 53.4152 44.5186 50.6083C48.3603 47.8014 51.4234 44.0619 53.4187 39.7426C55.4141 35.4234 56.2759 30.6669 55.9228 25.9222C55.5697 21.1774 54.0134 16.6009 51.4008 12.6246C48.7881 8.64821 45.2053 5.4032 40.9905 3.19581C36.7756 0.988423 32.0679 -0.108537 27.3114 0.008468L27.4168 4.29207C31.4453 4.19297 35.4327 5.12206 39.0025 6.99165C42.5723 8.86124 45.6069 11.6097 47.8197 14.9775C50.0325 18.3453 51.3507 22.2215 51.6497 26.2401C51.9488 30.2588 51.2188 34.2874 49.5288 37.9456C47.8388 41.6039 45.2445 44.7712 41.9907 47.1485C38.7369 49.5259 34.931 51.0349 30.9322 51.5331C26.9333 52.0314 22.8735 51.5024 19.1358 49.9962C15.3981 48.4899 12.1059 46.0561 9.56991 42.9244L6.23991 45.621Z" fill="#3B5999"/>
</svg>

<svg width="56" height="56" fill="none" xmlns="http://www.w3.org/2000/svg"><circle cx="28" cy="28" r="22" fill="#C4C4C4" fill-opacity=".4"/><path d="M41 41H16V16h25v25z" fill="#00C3FF"/><path d="M41 41H28.5V16H41v25z" fill="#00C3FF"/><path d="M39.535 39.535h-22.07v-22.07h22.07v22.07z" fill="#063E8B"/><path d="M39.535 39.535H28.5v-22.07h11.035v22.07z" fill="#063E8B"/><path d="M28.5 37.991a2.183 2.183 0 01-1.554-.644l-7.293-7.293a2.183 2.183 0 01-.644-1.554c0-.587.229-1.139.644-1.554l7.293-7.293a2.183 2.183 0 011.554-.644c.587 0 1.139.229 1.554.644l7.293 7.293c.416.415.644.967.644 1.554a2.18 2.18 0 01-.644 1.554l-7.293 7.293a2.183 2.183 0 01-1.554.644zm0-17.517a.728.728 0 00-.518.214l-7.294 7.294a.728.728 0 00-.214.518c0 .196.076.38.214.518l7.294 7.294a.728.728 0 00.518.214c.196 0 .38-.076.518-.214l7.294-7.294a.728.728 0 00.214-.518.728.728 0 00-.214-.518l-7.294-7.294a.728.728 0 00-.518-.214z" fill="#CCEFFF"/><path d="M37.347 26.946l-7.293-7.293a2.183 2.183 0 00-1.554-.644v1.465c.196 0 .38.076.518.214l7.294 7.294a.728.728 0 01.214.518c0 .196-.076.38-.214.518l-7.294 7.294a.728.728 0 01-.518.214v1.465a2.18 2.18 0 001.554-.644l7.293-7.293a2.18 2.18 0 00.644-1.554 2.18 2.18 0 00-.644-1.554z" fill="#CCEFFF"/><path d="M31.089 31.215c-.945 0-1.617-.43-1.852-.633l.39-.656c.25.177.826.539 1.438.539.397 0 .672-.166.672-.453 0-.352-.58-.466-.898-.555-.266-.073-1.461-.24-1.461-1.14 0-.867.754-1.352 1.61-1.352.897 0 1.377.364 1.6.562l-.421.633c-.208-.156-.672-.453-1.188-.453-.38 0-.624.162-.624.461 0 .373.653.48.804.516.281.073 1.586.272 1.586 1.234 0 1.137-1.146 1.297-1.656 1.297zm-6.313-.078V25.59h2.352c1.076 0 1.766.99 1.766 1.844 0 1.006-.766 1.843-1.727 1.843h-1.313v1.86h-1.078zm1.079-2.805h1.25c.378 0 .695-.353.695-.898 0-.47-.285-.899-.742-.899h-1.203v1.797z" fill="#00C3FF"/><path d="M28.5 26.298v2.306a1.92 1.92 0 00.394-1.17c0-.386-.141-.799-.394-1.136z" fill="#00C3FF"/><path d="M6.24 45.621A28 28 0 1027.31.008l.106 4.284A23.715 23.715 0 119.57 42.924l-3.33 2.697z" fill="#3B5999"/></svg>
